X:1
T:Terry Teahan's Polka
S:continuo <continuo@ntlworld.com> irtrad-l 2001-5-04
N:played by Jackie Daly on a Patrick Street CD (in A)
M:2/4
K:G
|: D2DB | AGEG | D2DB | AGGE |
|  D2DB | AGEG | D2dB | AGG2 :|
|: BdA>B | AGEG | BdA>B | AGG2 |
|  BdA>B | AGEG | D2dB | AGG2 :|
